src/assets/svg/jquery.svg

<svg width="58" height="58" viewBox="0 0 58 58" fill="none" xmlns="http://www.w3.org/2000/svg">
<circle cx="29.7985" cy="29.7988" r="26.0739" fill="#0769AD"/>
<path d="M42.1973 24.9959C44.5383 24.9959 46.6818 24.2151 48.3391 22.9202C46.6186 25.1871 43.7681 26.6692 40.5427 26.6692C35.2884 26.6692 31.029 22.736 31.029 17.8841C31.029 15.1938 32.3385 12.7861 34.401 11.1746C33.3187 12.6006 32.6836 14.3371 32.6836 16.2107C32.6836 21.0626 36.943 24.9959 42.1973 24.9959Z" fill="#78CFF5"/>
<path d="M48.2484 31.0254C45.7245 33.0052 42.4571 34.1994 38.8882 34.1994C30.8925 34.1994 24.4108 28.2059 24.4108 20.8124C24.4108 17.9449 25.3858 15.2879 27.0461 13.1095C23.9157 15.5651 21.9289 19.2292 21.9289 23.3225C21.9289 30.7159 28.4107 36.7094 36.4063 36.7094C41.3008 36.7094 45.628 34.4635 48.2484 31.0254Z" fill="#78CFF5"/>
<path d="M48.4228 38.6827C44.8263 42.1147 39.8439 44.2396 34.3381 44.2396C23.3727 44.2396 14.4834 35.8112 14.4834 25.4142C14.4834 22.1197 15.376 19.0228 16.9443 16.3291C13.378 19.7324 11.1743 24.421 11.1743 29.5976C11.1743 39.9946 20.0636 48.423 31.029 48.423C38.5198 48.423 45.0417 44.4898 48.4228 38.6827Z" fill="#78CFF5"/>
</svg>

<svg width="58" height="58" fill="none" xmlns="http://www.w3.org/2000/svg"><circle cx="29.799" cy="29.799" r="26.074" fill="#0769AD"/><path d="M42.197 24.996c2.341 0 4.485-.78 6.142-2.076-1.72 2.267-4.57 3.75-7.796 3.75-5.255 0-9.514-3.934-9.514-8.786 0-2.69 1.31-5.098 3.372-6.71-1.082 1.427-1.717 3.163-1.717 5.037 0 4.852 4.259 8.785 9.513 8.785z" fill="#78CFF5"/><path d="M48.248 31.025c-2.523 1.98-5.79 3.174-9.36 3.174-7.995 0-14.477-5.993-14.477-13.387 0-2.867.975-5.524 2.635-7.703-3.13 2.456-5.117 6.12-5.117 10.214 0 7.393 6.482 13.386 14.477 13.386 4.895 0 9.222-2.245 11.842-5.684z" fill="#78CFF5"/><path d="M48.423 38.683c-3.597 3.432-8.58 5.557-14.085 5.557-10.965 0-19.855-8.429-19.855-18.826 0-3.294.893-6.391 2.461-9.085-3.566 3.403-5.77 8.092-5.77 13.269 0 10.397 8.89 18.825 19.855 18.825 7.49 0 14.013-3.933 17.394-9.74z" fill="#78CFF5"/></svg>
